X: 35777
T: Sally In Our Alley
R: mazurka
M: 3/4
K: Dmajor
A|Ad (d2 c) d|ge (d2 c) d|BA A3 G|F d3 z A|
Ad (d2 c) d|ge (d2 c) d|BA A3 G|F d3 z A|
AF A2 =c2|BG B3 ^c|dB (gf) (ed)|c e3 z A|
GF E2 D2|gf (f2 e) d|gB (dc) (BA)|A d2 z z2:|

